X: 7257
T: Clare Shout, The
R: jig
M: 6/8
K: Dmajor
dB|AFD D (3DED|D (3DED B,DA,|DFA dfa|baf edB|
AFD D (3DED|D (3DED B,DA,|B,EE EDE|1 FDC DdB:|2 FDC DAG||
|:FAA BAA|dAF DEF|GDB, BGE|dBG edB|
FAA BAF|ABc dcB|A2F EDE|1 FDC DAG:|2 FDC DDB||

